X:260
L:1/8
M:6/8
K:E
|: fgf cAc | e2 e GAB | cAF a2 a | ged cde | fgf cAc | e2 e GAB | cAF agf | ecg ffe :: cAF cAF | 
 F=dd cAF | GBe ecB | AcA GcG | cAF =d2 d | cfa c'ba | agf ecB | BgB ffe :|

